X: 24
T:Louis Waltz
% Nottingham Music Database
S:Trad French Canadian
M:3/4
L:1/4
K:D
A/2B/2A/2G/2|"D"FD/2F/2A/2d/2|"D"f-f/2f/2e/2f/2|"G"gb/2g/2f/2g/2|\
"G"B-B/2d/2c/2B/2|
"A"AE/2F/2G/2A/2|"A"cBA|"D"F-F/2D/2F/2B/2|"A7"AA/2B/2A/2G/2|"D"FD/2F/2A/2d/2|\
"D"f2e/2f/2|
"G"gb/2g/2f/2g/2|"G"B-B/2d/2c/2B/2|"A"AE/2F/2G/2A/2|"A7"cBc|"D"d-d/2A/2F/2A/2|\
"D"D-D/2A/2B/2A/2||
"Em"G-G/2A/2B/2A/2|"A7"c-c/2A/2B/2A/2|"D"F-F/2D/2F/2A/2|"D"dcd|"Em"e2e/2f/2|
"A7"eAA/2G/2|"D"F-F/2E/2F/2G/2|"D"FEF|"Em"G-G/2A/2B/2A/2|"A7"c-c/2A/2B/2A/2|
"D"F-F/2D/2F/2A/2|"D"dcd|"Em"E2E/2F/2|"A7"GFE|"D"DFA|"D"d2||


